X: 1
T: Con McGinley's
M: 4/4
L: 1/8
R: strathspey
K: Gmaj
|: e/A3/2Af edBd | e/A3/2Ac BGBd | e/A3/2Af edBd |1 efge dgfg :|2 efge d2Bd||
|: efga b/g3/2gf | efgd B/G3/2Bd | efga b/g3/2gb |1 afge d2Bd :|2 afge dgfg ||
